X: 223
T:In illo tempore stetit Jesus
N: Derived from Jos1906-In_illo_tempore_stetit_Jesus.krn
C: Josquin des Prez
%%abc-version 2.0
%%abcx-abcm2ps-target-version 5.9.1 (29 Sep 2008)
%%abc-creator hum2abc beta
%%abcx-conversion-date 2019/02/12 16:15:49
%%abc-edited-by Jesse Rodin
%%abc-edited-by Victoria Chang
%%abcx-initial-encoding-date 2011/03/21/
%%humdrum-veritas 2623634902
%%humdrum-veritas-data 3706562227
%%linebreak <none>
%%barnumbers 0
L: 1/4
M: 2/1
Q: 1/2=120
V: 1 clef=treble
V: 2 clef=treble
V: 3 clef=treble-8
V: 4 clef=treble-8
V: 5 clef=treble-8
V: 6 clef=bass
K: C
[V:1] z8 | 
[V:2] z8 | 
[V:3] z8 | 
[V:4] z8 | 
[V:5] d8 | 
[V:6] z8 | 
[V:1] z8 | 
[V:2] z8 | 
[V:3] z8 | 
[V:4] z8 | 
[V:5] B4d4 | 
[V:6] G,8 | 
[V:1] z8 | 
[V:2] G8 | 
[V:3] z8 | 
[V:4] z8 | 
[V:5] e4d2d2- | 
[V:6] E,4G,4 | 
[V:1] z8 | 
[V:2] E4G4 | 
[V:3] z4d4- | 
[V:4] z8 | 
[V:5] d2c2d2B2 | 
[V:6] A,4G,2G,2- | 
[V:1] z4d4- | 
[V:2] A4G2G2- | 
[V:3] d4B4 | 
[V:4] z8 | 
[V:5] A4B4 | 
[V:6] G,2F,2G,4 | 
[V:1] d4B4 | 
[V:2] G2F2G4- | 
[V:3] d4e4 | 
[V:4] z8 | 
[V:5] A4G4 | 
[V:6] D,4z4 | 
[V:1] d4e4 | 
[V:2] G8- | 
[V:3] d2d4c2 | 
[V:4] z8 | 
[V:5] z2G4A2 | 
[V:6] G,4C,2C,2 | 
[V:1] d2d4c2 | 
[V:2] G4A4 | 
[V:3] d4e4 | 
[V:4] z8 | 
[V:5] B2G2c3B | 
[V:6] G,2B,2A,4 | 
[V:1] d8 | 
[V:2] z2F2G4 | 
[V:3] d2D2G4 | 
[V:4] d8- | 
[V:5] G2d4cB | 
[V:6] z2B,3A,G,2- | 
[V:1] d8- | 
[V:2] A4D2G2- | 
[V:3] D4G4 | 
[V:4] d8- | 
[V:5] A4B4 | 
[V:6] G,2^F,2G,4 | 
[V:1] d4B4 | 
[V:2] G2^F2G4 | 
[V:3] z8 | 
[V:4] d8- | 
[V:5] A4G4 | 
[V:6] D,4z4 | 
[V:1] B4A4- | 
[V:2] z2d4d2 | 
[V:3] z2d3ef2- | 
[V:4] d8- | 
[V:5] z2G2G2FE | 
[V:6] G,,4D,4 | 
[V:1] A4B4 | 
[V:2] d4d4 | 
[V:3] fedcB4 | 
[V:4] d8- | 
[V:5] F4G4 | 
[V:6] D,4G,,2G,2 | 
[V:1] d6d2 | 
[V:2] z4G4 | 
[V:3] A4G2g2 | 
[V:4] d8- | 
[V:5] D2A2B4 | 
[V:6] G,2F,2G,4 | 
[V:1] d8 | 
[V:2] A4B4 | 
[V:3] g2f2g2g2- | 
[V:4] d8- | 
[V:5] A4G2B2- | 
[V:6] D,4G,,4 | 
[V:1] B4d4- | 
[V:2] G2B4B2 | 
[V:3] g2g2g2g2 | 
[V:4] d8 | 
[V:5] B2B2B4 | 
[V:6] G,6G,2 | 
[V:1] d2d2d2d2 | 
[V:2] G2G2A4 | 
[V:3] d2g4fe | 
[V:4] d8- | 
[V:5] B4A4- | 
[V:6] G,2G,2D,4- | 
[V:1] A2BAB2A2- | 
[V:2] d8 | 
[V:3] f3ed2c2 | 
[V:4] d8- | 
[V:5] A4F4 | 
[V:6] D,8 | 
[V:1] AGG4^F2 | 
[V:2] d8 | 
[V:3] B2AGA4 | 
[V:4] d8 | 
[V:5] D2E2F4 | 
[V:6] G,,4D,4 | 
[V:1] G8 | 
[V:2] d8 | 
[V:3] G8 | 
[V:4] B8 | 
[V:5] D2G4G2 | 
[V:6] G,,4z2G,2- | 
[V:1] z2G4G2 | 
[V:2] z8 | 
[V:3] z4z2g2- | 
[V:4] B8- | 
[V:5] E3FG4 | 
[V:6] G,2G,2E,3F, | 
[V:1] D2D2G2d2- | 
[V:2] z2d4d2 | 
[V:3] g2g2d2d2 | 
[V:4] B8- | 
[V:5] z4d4- | 
[V:6] G,4G,4- | 
[V:1] d2d2B3c | 
[V:2] B3cd4 | 
[V:3] g4G4- | 
[V:4] B8- | 
[V:5] d2d2d4 | 
[V:6] G,4G,4- | 
[V:1] d4z4 | 
[V:2] G4G4 | 
[V:3] G4G4 | 
[V:4] B8 | 
[V:5] d4e4 | 
[V:6] G,2F,2E,4 | 
[V:1] A4d4- | 
[V:2] F3GA_BA2- | 
[V:3] A8 | 
[V:4] d8- | 
[V:5] f3ed2c2 | 
[V:6] D,8- | 
[V:1] d2d2d2d2 | 
[V:2] A2G4^F2 | 
[V:3] D2E2F4 | 
[V:4] d8- | 
[V:5] B2AGA4 | 
[V:6] D,8 | 
[V:1] B8- | 
[V:2] G4z2d2 | 
[V:3] D2d2B2G2 | 
[V:4] d8- | 
[V:5] G8 | 
[V:6] G,,8- | 
[V:1] B4z2d2 | 
[V:2] B2G2d2d2 | 
[V:3] d2d2G4- | 
[V:4] d8 | 
[V:5] z2d2B2G2 | 
[V:6] G,,8 | 
[V:1] B2G2d2d2 | 
[V:2] G8 | 
[V:3] G4z2B2 | 
[V:4] d8 | 
[V:5] d2d2G4 | 
[V:6] z4z2G,2 | 
[V:1] G4z4 | 
[V:2] z4G4 | 
[V:3] B2c2B2c2 | 
[V:4] e8- | 
[V:5] z2G2E2C2 | 
[V:6] E,2C,2G,2G,2 | 
[V:1] G4E2C2 | 
[V:2] E2C2G2G2 | 
[V:3] c6BA | 
[V:4] e8- | 
[V:5] G2G2C4- | 
[V:6] C,3D,E,4 | 
[V:1] G2G2C4 | 
[V:2] CDEFGEA2- | 
[V:3] G6c2 | 
[V:4] e8- | 
[V:5] C4E4 | 
[V:6] z2E,2C,2A,,2 | 
[V:1] z4c4 | 
[V:2] A2^G2A4 | 
[V:3] B4A4 | 
[V:4] e8- | 
[V:5] z2G2E2C2 | 
[V:6] E,2E,2A,,4 | 
[V:1] B8 | 
[V:2] G6G2 | 
[V:3] z2B4B2 | 
[V:4] e8- | 
[V:5] G2G2E2G2- | 
[V:6] E,4z2E,2- | 
[V:1] B4c4 | 
[V:2] G4E3F | 
[V:3] G2G2c4 | 
[V:4] e8 | 
[V:5] G2G2G3A | 
[V:6] E,2E,2C,2C,2 | 
[V:1] B8- | 
[V:2] G8 | 
[V:3] z2d2B2G2 | 
[V:4] d8- | 
[V:5] B4z2d2 | 
[V:6] G,8- | 
[V:1] B4z4 | 
[V:2] z2G4F2 | 
[V:3] d3cB2A2- | 
[V:4] d8- | 
[V:5] B2G2d4- | 
[V:6] G,4z2D,2 | 
[V:1] z8 | 
[V:2] G2G2A2d2 | 
[V:3] AGG4^F2 | 
[V:4] d8- | 
[V:5] d2cBA4 | 
[V:6] B,,2G,,2D,4 | 
[V:1] z2d2B2G2 | 
[V:2] B2G2d2d2 | 
[V:3] G4z2d2 | 
[V:4] d8 | 
[V:5] G8 | 
[V:6] G,,8- | 
[V:1] d3cB2A2- | 
[V:2] G4z4 | 
[V:3] B2G2d4- | 
[V:4] d8- | 
[V:5] z2G2G2F2 | 
[V:6] G,,4z2D,2 | 
[V:1] AGG4^F2 | 
[V:2] d6d2 | 
[V:3] d2cBA4 | 
[V:4] d8- | 
[V:5] G2G2D2A2 | 
[V:6] B,,2G,,2D,2D,2 | 
[V:1] G4z4 | 
[V:2] B2G2A4 | 
[V:3] G4D4 | 
[V:4] d8- | 
[V:5] B4A4 | 
[V:6] G,,2G,4F,2 | 
[V:1] z2G4F2 | 
[V:2] G4z2d2- | 
[V:3] z4d4 | 
[V:4] d8 | 
[V:5] B4A4 | 
[V:6] G,2G,2D,4 | 
[V:1] G2G2D2d2- | 
[V:2] d2c2d2B2 | 
[V:3] e2e2g4 | 
[V:4] z8 | 
[V:5] z4G4 | 
[V:6] z8 | 
[V:1] d2c2d2B2 | 
[V:2] A4D4- | 
[V:3] e4z2g2- | 
[V:4] z8 | 
[V:5] A4G4 | 
[V:6] z8 | 
[V:1] A4e4 | 
[V:2] D4z2G2 | 
[V:3] g2f2g2e2 | 
[V:4] z8 | 
[V:5] z2d4c2 | 
[V:6] z8 | 
[V:1] f2e3dd2- | 
[V:2] F2A4G2 | 
[V:3] d2c2d4 | 
[V:4] z8 | 
[V:5] d2A2B4 | 
[V:6] z8 | 
[V:1] d2^c2d4 | 
[V:2] A8 | 
[V:3] e4d2d2 | 
[V:4] z8 | 
[V:5] A6d2 | 
[V:6] A,,4D,3E, | 
[V:1] z8 | 
[V:2] A8- | 
[V:3] A2d4c2 | 
[V:4] z8 | 
[V:5] c2f4e2- | 
[V:6] F,2D,2A,4 | 
[V:1] z4z2A2- | 
[V:2] A8 | 
[V:3] c2f4e2 | 
[V:4] z8 | 
[V:5] e2d4c2 | 
[V:6] D,4A,4 | 
[V:1] A2G2A4 | 
[V:2] z2d4c2 | 
[V:3] d4e4 | 
[V:4] z8 | 
[V:5] d2G2c3B | 
[V:6] _B,4A,4 | 
[V:1] F4G4- | 
[V:2] d2c2d4 | 
[V:3] d2f2e2d2- | 
[V:4] z8 | 
[V:5] A2c2B2A2- | 
[V:6] D,2A,2G,2F,2 | 
[V:1] G4F2A2- | 
[V:2] e4f2e2- | 
[V:3] d2c2d2c2 | 
[V:4] z8 | 
[V:5] A2G2A4 | 
[V:6] E,4D,2A,2 | 
[V:1] A2G2A4- | 
[V:2] edd4^c2 | 
[V:3] d4e4 | 
[V:4] z8 | 
[V:5] z2G2c3B | 
[V:6] _B,4A,4 | 
[V:1] A8 | 
[V:2] d8 | 
[V:3] d3c/B/AGA2- | 
[V:4] z8 | 
[V:5] AGA2D2F2 | 
[V:6] D,4z2D,2 | 
[V:1] c6BA | 
[V:2] G4A4 | 
[V:3] AGG4^F2 | 
[V:4] z8 | 
[V:5] E2D4C2 | 
[V:6] C,2B,,2A,,4 | 
[V:1] B8- | 
[V:2] D8 | 
[V:3] G4z4 | 
[V:4] B8- | 
[V:5] D2G4G2 | 
[V:6] G,,4z2G,2- | 
[V:1] B8 | 
[V:2] z8 | 
[V:3] z2g4g2 | 
[V:4] B8- | 
[V:5] E6E2 | 
[V:6] G,2G,2E,2G,2 | 
[V:1] z8 | 
[V:2] z8 | 
[V:3] e2g3ff2- | 
[V:4] B8 | 
[V:5] E4F4 | 
[V:6] G,2F,E,D,2D,2 | 
[V:1] z2G2A2F2 | 
[V:2] z4z2A2- | 
[V:3] f2e2f4- | 
[V:4] c8- | 
[V:5] G4F4- | 
[V:6] C,4z4 | 
[V:1] c3BA2G2- | 
[V:2] A2F2c3B | 
[V:3] f2edc4 | 
[V:4] c8- | 
[V:5] F4z4 | 
[V:6] z2F,4E,2 | 
[V:1] GFF4E2 | 
[V:2] A2GFG4 | 
[V:3] z8 | 
[V:4] c8 | 
[V:5] z8 | 
[V:6] F,2G,2C,4 | 
[V:1] F8 | 
[V:2] F2A2_B2A2 | 
[V:3] z4z2A2 | 
[V:4] d8- | 
[V:5] D8 | 
[V:6] z8 | 
[V:1] z4z2A2 | 
[V:2] d3c_B2A2- | 
[V:3] _B2A2d3c | 
[V:4] d8- | 
[V:5] D4D4 | 
[V:6] z8 | 
[V:1] d8 | 
[V:2] A2G4^F2 | 
[V:3] _B2AGA4 | 
[V:4] d8- | 
[V:5] D8 | 
[V:6] z8 | 
[V:1] B4z2G2- | 
[V:2] G2d3cBA | 
[V:3] G4z2d2- | 
[V:4] d8- | 
[V:5] G8- | 
[V:6] G,,6G,,2 | 
[V:1] GABcded2- | 
[V:2] B2G4FE | 
[V:3] dcBAB2G2 | 
[V:4] d8- | 
[V:5] G8 | 
[V:6] G,,4G,,4 | 
[V:1] dcc4B2 | 
[V:2] D4G4- | 
[V:3] B2c2d4 | 
[V:4] d8 | 
[V:5] G8 | 
[V:6] G,,4G,,4 | 
[V:1] c8 | 
[V:2] G8 | 
[V:3] z2e4e2 | 
[V:4] c8- | 
[V:5] E2G4G2 | 
[V:6] C,2C,4C,2 | 
[V:1] z8 | 
[V:2] z8 | 
[V:3] f2g4f2 | 
[V:4] c8- | 
[V:5] A2G2A2A2 | 
[V:6] F,2C,2F,2F,2 | 
[V:1] c6B2 | 
[V:2] z4c4- | 
[V:3] f2ede4 | 
[V:4] c8- | 
[V:5] G8 | 
[V:6] C,4C,4- | 
[V:1] A2G2c4 | 
[V:2] c2B2A2G2 | 
[V:3] e8- | 
[V:4] c8- | 
[V:5] c6B2 | 
[V:6] C,2C,2C,2C,2 | 
[V:1] z2G2A2G2 | 
[V:2] c8 | 
[V:3] e8- | 
[V:4] c8- | 
[V:5] A2G2c2G2 | 
[V:6] C,2C,4D,2 | 
[V:1] c3BA2G2- | 
[V:2] z8 | 
[V:3] e8 | 
[V:4] c8 | 
[V:5] A2G2c3B | 
[V:6] C,2C,2C,4 | 
[V:1] GFF4E2 | 
[V:2] c4c4 | 
[V:3] z4z2c2- | 
[V:4] c8 | 
[V:5] A2GFG4 | 
[V:6] C,4C,4 | 
[V:1] F8- | 
[V:2] c2A2A4 | 
[V:3] c2c2f3e | 
[V:4] A8 | 
[V:5] F4D4 | 
[V:6] F,4z2D,2- | 
[V:1] F8 | 
[V:2] A4A4 | 
[V:3] d2d2c2f2- | 
[V:4] A8- | 
[V:5] F3GA2DE | 
[V:6] D,2D,2F,3E, | 
[V:1] z8 | 
[V:2] A4z4 | 
[V:3] f2e4d2- | 
[V:4] A8- | 
[V:5] FGA4GF | 
[V:6] D,2C,2D,2D,2 | 
[V:1] z4z2A2- | 
[V:2] z2A4A2 | 
[V:3] d2^c2d4 | 
[V:4] A8- | 
[V:5] E4D4 | 
[V:6] A,,4z2A,2- | 
[V:1] A2A2c3B | 
[V:2] c3BA2F2- | 
[V:3] c4c4 | 
[V:4] A8- | 
[V:5] z2A4A2 | 
[V:6] A,2A,2F,2F,2- | 
[V:1] A2FGA_BA2- | 
[V:2] F2EDC2F2- | 
[V:3] z2f3ec2 | 
[V:4] A8- | 
[V:5] c3BA4 | 
[V:6] F,2F,2F,4- | 
[V:1] AGG4^F2 | 
[V:2] F2E2D4 | 
[V:3] d2cBA4 | 
[V:4] A8 | 
[V:5] D2E2F4 | 
[V:6] F,2C,2D,4 | 
[V:1] G8- | 
[V:2] D8 | 
[V:3] B2G4A2 | 
[V:4] G8- | 
[V:5] D8 | 
[V:6] G,,8 | 
[V:1] G8 | 
[V:2] D4E4 | 
[V:3] B2G2c4 | 
[V:4] G8- | 
[V:5] z2G4A2 | 
[V:6] G,4C,4 | 
[V:1] z2G4A2 | 
[V:2] D4z4 | 
[V:3] G2d2e3c | 
[V:4] G8- | 
[V:5] B2G2c4 | 
[V:6] z8 | 
[V:1] B2G2c4 | 
[V:2] z2G4A2 | 
[V:3] d2e2c4 | 
[V:4] G8 | 
[V:5] G2E4F2 | 
[V:6] z8 | 
[V:1] G4z4 | 
[V:2] B2G2c4 | 
[V:3] B2e3cf2 | 
[V:4] z8 | 
[V:5] G4A4 | 
[V:6] z2C,4D,2 | 
[V:1] G4G4 | 
[V:2] G2c4B2 | 
[V:3] e4d4 | 
[V:4] z8 | 
[V:5] z2G3ABG | 
[V:6] E,2C,2G,4 | 
[V:1] E4z2G2- | 
[V:2] c2C3DEC | 
[V:3] c8 | 
[V:4] z8 | 
[V:5] A2G4c2- | 
[V:6] C,3C,C,2C,2 | 
[V:1] GABGA2G2- | 
[V:2] D4C2G2 | 
[V:3] z8 | 
[V:4] z8 | 
[V:5] c2B2c4 | 
[V:6] G,4C,4- | 
[V:1] G2c4B2 | 
[V:2] E2DCD4 | 
[V:3] z2G3ABG | 
[V:4] z8 | 
[V:5] C4G4 | 
[V:6] C,4z4 | 
[V:1] c2C3DEC | 
[V:2] C4z2G2- | 
[V:3] A2G4c2- | 
[V:4] z8 | 
[V:5] C4G4- | 
[V:6] C,8 | 
[V:1] D4C4 | 
[V:2] GABGA2G2- | 
[V:3] c2B2c4 | 
[V:4] z8 | 
[V:5] G4C2E2- | 
[V:6] G,,4z2C,2- | 
[V:1] G6G2 | 
[V:2] G2c4B2 | 
[V:3] e4d4 | 
[V:4] z8 | 
[V:5] EFG3ABG | 
[V:6] C,D,E,C,G,4 | 
[V:1] E2G2A2G2 | 
[V:2] c8 | 
[V:3] c4z2G2 | 
[V:4] c8- | 
[V:5] A2G2E4- | 
[V:6] C,8- | 
[V:1] c6c2 | 
[V:2] z2G2A2G2 | 
[V:3] A2G2c4- | 
[V:4] c4c4 | 
[V:5] E4z2G2 | 
[V:6] C,8- | 
[V:1] c2G4FE | 
[V:2] c6c2 | 
[V:3] c2c2G4- | 
[V:4] c8 | 
[V:5] A2G2c4- | 
[V:6] C,8 | 
[V:1] E3FGAG2- | 
[V:2] G3F/E/E4 | 
[V:3] G8 | 
[V:4] c8 | 
[V:5] c2c2G2c2- | 
[V:6] C,4C,2C,2 | 
[V:1] G2F4E2 | 
[V:2] z4G4 | 
[V:3] A3Bc4- | 
[V:4] c8 | 
[V:5] cBA2G4 | 
[V:6] F,4C,4 | 
[V:1] F2C2D2C2 | 
[V:2] A4F3G | 
[V:3] c4z2c2 | 
[V:4] A8- | 
[V:5] F3EFGA2 | 
[V:6] F,8 | 
[V:1] F2E2z4 | 
[V:2] A4z2C2 | 
[V:3] d2c2f2e2 | 
[V:4] A8- | 
[V:5] D2A2z2A2- | 
[V:6] z2C,2D,2C,2 | 
[V:1] z8 | 
[V:2] D2C2F4 | 
[V:3] z2c2d4 | 
[V:4] A8 | 
[V:5] A2A2F2F2 | 
[V:6] F,3E,D,4 | 
[V:1] G4c4- | 
[V:2] E3FGAG2- | 
[V:3] e3dcBc2- | 
[V:4] c8- | 
[V:5] G2G4C2 | 
[V:6] C,8 | 
[V:1] c2c2c4 | 
[V:2] GFF4E2 | 
[V:3] c2BAG4 | 
[V:4] c8- | 
[V:5] E2F2C4 | 
[V:6] C,2z2z4 | 
[V:1] A8 | 
[V:2] F4z4 | 
[V:3] F2f3ef2 | 
[V:4] c8 | 
[V:5] c3BAGA2 | 
[V:6] F,8 | 
[V:1] z2B2d4- | 
[V:2] G4D2D2 | 
[V:3] d4g4 | 
[V:4] B8 | 
[V:5] G6d2- | 
[V:6] G,6G,2 | 
[V:1] d2d2A3B | 
[V:2] F2F2C2c2 | 
[V:3] z4f4 | 
[V:4] A8 | 
[V:5] dcA3Bc2- | 
[V:6] D,4F,4 | 
[V:1] c2d3cc2- | 
[V:2] c2B2c4 | 
[V:3] e2d2g2e2 | 
[V:4] G8- | 
[V:5] cBG4A2 | 
[V:6] C,2G,2E,2C,2 | 
[V:1] c2B2c4- | 
[V:2] d4e4 | 
[V:3] d4c4- | 
[V:4] G8 | 
[V:5] B2G4c2 | 
[V:6] G,4C,4 | 
[V:1] c4z2c2 | 
[V:2] z2c2c2c2 | 
[V:3] c8 | 
[V:4] A8- | 
[V:5] c2c2A2c2- | 
[V:6] F,8- | 
[V:1] c2c2A2c2- | 
[V:2] A2c3BAG | 
[V:3] z2c2c2c2 | 
[V:4] A4A4 | 
[V:5] cBAGF4 | 
[V:6] F,8 | 
[V:1] cBAGF3G | 
[V:2] F3GA4 | 
[V:3] A2c3BAG | 
[V:4] A8- | 
[V:5] c4c2c2 | 
[V:6] z2F,2F,2F,2 | 
[V:1] A4A4- | 
[V:2] z2c2c2c2 | 
[V:3] F4z2f2 | 
[V:4] A8 | 
[V:5] d2B2A4 | 
[V:6] D,2A,3G,F,E, | 
[V:1] A8- | 
[V:2] d3ef2e2- | 
[V:3] f2f2d2e2 | 
[V:4] A8 | 
[V:5] d4z2A2 | 
[V:6] D,6C,2 | 
[V:1] A4z2A2- | 
[V:2] edd4^c2 | 
[V:3] f4e4 | 
[V:4] A8- | 
[V:5] F2D2A2A2 | 
[V:6] D,4A,,4 | 
[V:1] AGG4^F2 | 
[V:2] d4z2d2 | 
[V:3] d2cBA4 | 
[V:4] A8 | 
[V:5] F2d2d2d2 | 
[V:6] D,8 | 
[V:1] G8- | 
[V:2] d2d2B2d2- | 
[V:3] G4z2d2- | 
[V:4] B8- | 
[V:5] B2d3cBA | 
[V:6] G,,4z2G,2 | 
[V:1] G4z4 | 
[V:2] dcBAG4 | 
[V:3] d2d2e2e2 | 
[V:4] B8 | 
[V:5] G8 | 
[V:6] G,2G,2E,4 | 
[V:1] F3GA2F2- | 
[V:2] A4F2A2- | 
[V:3] c2f3edc | 
[V:4] A8- | 
[V:5] z4F4 | 
[V:6] F,4D,2F,2- | 
[V:1] FGE2D2d2- | 
[V:2] AGG4^F2 | 
[V:3] d2cBA4 | 
[V:4] A8 | 
[V:5] D2E2F4 | 
[V:6] F,E,C,2D,4 | 
[V:1] dcBAB3c | 
[V:2] G8- | 
[V:3] B2d3cBA | 
[V:4] G8- | 
[V:5] D8- | 
[V:6] G,,8- | 
[V:1] d6B2 | 
[V:2] G8- | 
[V:3] B3cd4- | 
[V:4] G8 | 
[V:5] D8- | 
[V:6] G,,8- | 
[V:1] B8 |]  
[V:2] G8 |]  
[V:3] d8 |]  
[V:4] G8 |]  
[V:5] D8 |]  
[V:6] G,,8 |]  



